src/assets/mountain.svg

<?xml version="1.0" encoding="UTF-8"?>
<svg version="1.1" viewBox="0 0 144 144" xmlns="http://www.w3.org/2000/svg">
<g transform="matrix(12.529 0 0 11.835 -22.071 -9.6007)" style="">
<path d="m5 6-2.924 5.924c-0.077 0.077-0.163 0.786-0.163 0.94 0 0.538 0.471 0.136 0.778 0.136h9.618c0.384 0 0.779 0.36 0.779-0.178 0-0.154-0.087-0.744-0.164-0.898l-2.924-5.924c0.012-0.156-1.576-3.418-2.259-2.926s-2.439 2.083-2.741 2.926z" fill="#790d0c"/>
</g>
</svg>

<?xml version="1.0" encoding="utf-8"?>
<svg version="1.1" id="svg4619" x="0px" y="0px" width="144" height="144" viewBox="0 0 144 144.00001" xmlns="http://www.w3.org/2000/svg">
  <g id="g6554" transform="matrix(12.528902, 0, 0, 11.834719, -22.071199, -9.600705)" style="">
    <path d="M 5 6 L 2.076 11.924 C 1.999 12.001 1.913 12.71 1.913 12.864 C 1.913 13.402 2.384 13 2.691 13 L 12.309 13 C 12.693 13 13.088 13.36 13.088 12.822 C 13.088 12.668 13.001 12.078 12.924 11.924 L 10 6 C 10.012 5.844 8.424 2.582 7.741 3.074 C 7.058 3.566 5.302 5.157 5 6 Z" style="fill-opacity: 1; fill: rgb(121, 13, 12);" id="path6447"/>
  </g>
</svg>
